X: 6272
T: Carolan's Quarrel With The Landlady
R: jig
M: 6/8
K: Bminor
F/E/|D>EF d2d/e/|f/e/d/c/B/A/ d2d/c/|B>cB/A/ Bcd/c/|
B/A/G/F/E/D/ E2F/E/|D>EF d2d/e/|f/e/d/c/B/A/ d2d/c/|
Bc/B/A/F/ AB/A/F/E/|F3d2d/c/|Bc/B/A/F/ AB/A/F/E/|FBB B2:|
|:d/e/|fdf f/e/d/c/B/A/|Acd e2e/4f/4g/|f/e/d/c/B/A/ Bcd/c/|
B/A/G/F/E/D/ E2F/E/|D>EF d2d/e/|f/e/d/c/B/A/ d2d/c/|
Bc/B/A/F/ AB/A/F/E/|F3d2c|Bc/B/A/F/ AB/A/F/E/|FBB B2:|

